assets/img/icons/duotone-icons/Shopping/Cart#1.svg

<?xml version="1.0" encoding="UTF-8"?>
<svg width="24px" height="24px" viewBox="0 0 24 24" version="1.1" xmlns="http://www.w3.org/2000/svg" xmlns:xlink="http://www.w3.org/1999/xlink">
    <!-- Generator: Sketch 52.2 (67145) - http://www.bohemiancoding.com/sketch -->
    <title>Stockholm-icons / Shopping / Cart#1</title>
    <desc>Created with Sketch.</desc>
    <g id="Stockholm-icons-/-Shopping-/-Cart#1" stroke="none" stroke-width="1" fill="none" fill-rule="evenodd">
        <rect id="bound" x="0" y="0" width="24" height="24"></rect>
        <path d="M18.1446364,11.84388 L17.4471627,16.0287218 C17.4463569,16.0335568 17.4455155,16.0383857 17.4446387,16.0432083 C17.345843,16.5865846 16.8252597,16.9469884 16.2818833,16.8481927 L4.91303792,14.7811299 C4.53842737,14.7130189 4.23500006,14.4380834 4.13039941,14.0719812 L2.30560137,7.68518803 C2.28007524,7.59584656 2.26712532,7.50338343 2.26712532,7.4104669 C2.26712532,6.85818215 2.71484057,6.4104669 3.26712532,6.4104669 L16.9929851,6.4104669 L17.606173,3.78251876 C17.7307772,3.24850086 18.2068633,2.87071314 18.7552257,2.87071314 L20.8200821,2.87071314 C21.4717328,2.87071314 22,3.39898039 22,4.05063106 C22,4.70228173 21.4717328,5.23054898 20.8200821,5.23054898 L19.6915238,5.23054898 L18.1446364,11.84388 Z" id="Combined-Shape" fill="#335EEA" opacity="0.3"></path>
        <path d="M6.5,21 C5.67157288,21 5,20.3284271 5,19.5 C5,18.6715729 5.67157288,18 6.5,18 C7.32842712,18 8,18.6715729 8,19.5 C8,20.3284271 7.32842712,21 6.5,21 Z M15.5,21 C14.6715729,21 14,20.3284271 14,19.5 C14,18.6715729 14.6715729,18 15.5,18 C16.3284271,18 17,18.6715729 17,19.5 C17,20.3284271 16.3284271,21 15.5,21 Z" id="Combined-Shape" fill="#335EEA"></path>
    </g>
</svg>

<svg width="24" height="24" viewBox="0 0 24 24" xmlns="http://www.w3.org/2000/svg"><g fill="none" fill-rule="evenodd"><path d="M0 0h24v24H0z"/><path d="M18.145 11.844l-.698 4.185a1 1 0 01-1.165.82L4.913 14.78a1 1 0 01-.783-.709L2.306 7.685a1 1 0 01.961-1.275h13.726l.613-2.627a1.18 1.18 0 011.15-.912h2.064a1.18 1.18 0 110 2.36h-1.128l-1.547 6.613z" fill="#335EEA" opacity=".3"/><path d="M6.5 21a1.5 1.5 0 110-3 1.5 1.5 0 010 3zm9 0a1.5 1.5 0 110-3 1.5 1.5 0 010 3z" fill="#335EEA"/></g></svg>
